X:0
T:X Tune
C:Copyright 2015 Caz Lewis
K:G
L:1/8
M:2/4
EF|:"Em"GE EF|GB AG|"D"FD DE| FA GF|"Em"GE EF|"C"GB AG|"D"FG F/E/D|1 "Em"E2EF:|2 "Em"E4|
|:"Em"EF GB|"D"A>G FD|"Em"EF GB|"Bm"Ad "Em"e2|"Em"EF GB|"D"A>G FD|"Em"EG "D"F/E/D|"Em"E4:|